X:1
T:Benedixit Dominus Noë
T:Benedixit Dominus Noë
T:Jacob Arc(h)adelt
C:Jacob Arc(h)adelt
%%score [ 1 2 3 4 ]
L:1/8
Q:1/4=120
M:2/2
K:C
V:1 treble nm="Soprano" snm="S"
V:2 treble nm="Alto" snm="A"
V:3 treble-8 nm="Tenor" snm="T"
V:4 bass nm="Bass" snm="B"
V:1
 d8 | B4 c4 | d8 | G4 c4- | c2 B2 A2 d2- | d2 c2 B4 | A2 c3 BAG | A4 G4- | G4 z4 | z8 | z8 | z8 | %12
w: Be-|ne- di-|xit|De- us|_ _ _ No-|||* e.|_||||
 z8 | z4 G4 | c6 B2 | A2 d3 cBA | B2 (c3 BAG | A4) G4 | z2 A2 B4- | B2 A2 G2 F2 | G3 F GA B2- | %21
w: |Be-|ne- di-|xit De- * * *|us No- * * *|* e,|De- us|_ _ _ _|* * * * No-|
 BG A3 G G2- | G2 F2 G4- | G4 z4 | z8 | z2 G4 F2 | G2 B2 A4 | (G4 A4) | z2 d4 c2 | d2 f2 e2 d2- | %30
w: |* * e.|_||Et fi-|li- is e-|ius, _|et fi-|li- is e- *|
 dcBA B2 A2 | B2 c2 A4 | G4 z2 G2- | G2 F2 D2 E2 | F2 (E3 FGA) | B2 A4 G2 | F2 D2 E4 | z2 A4 G2 | %38
w: ||us, et|_ di- xit ad|e- os, _ _ _|et di- xit|ad e- os,|et di-|
 A2 B2 c4 | d2 f3 e e2- | ed d4 c2 | d8 | z8 | z8 | z2 d4 B2 | G4 c4 | c2 c2 A2 B2 | c2 d2 z2 d2 | %48
w: xit ad e-|||os:|||'Cre- sci-|te et|mul- ti- pli- ca-|mi- ni, cre-|
 B2 G2 c3 B | AG A4 G2- | G2 F2 E4 | D3 E FGAF | G2 A2 z2 E2 | G4 F2 D2 | F4 E4 | (G4 F2 G2) | %56
w: sci- te et _|_ _ mul- ti-|* pli- ca-|mi- * * * * *|* ni et|re- ple- te|to- *|ter- * *|
 A4 z2 E2 | G4 F2 (DE | FGAF G2) A2- | A2 G4 ^F2 | G8 |] %61
w: ram, et|re- ple- te _|_ _ _ _ _ ter-||ram.|
V:2
 z4 G4- | G4 E4 | F4 (G3 F | ED C4 B,A, | G,2) G4 F2 | E4 D3 E | FG A4 G2- | G2 ^F2 (G3 =F/E/ | %8
w: Be-|* ne-|di- xit _|_ _ _ _ _|* De- us|No- en _|_ _ be- ne-|* di- xit _ _|
 D2) (E3 DCB, | A,4) B,4 | z8 | z8 | z8 | z8 | z8 | D4 G4- | G2 F2 (E2 D2) | z2 CD EF G2- | %18
w: _ De- * * *|* us.||||||Be- ne-|* di- xit _|De- * * * *|
 G2 F2 G2 E2 | D2 z2 z2 D2 | E3 D/C/ B,4 | z2 D4 C2 | D2 F2 E2 D2- | DCB,A, B,2 A,2 | %24
w: * * us No-|e, No-|e _ _ _|et fi-|li- is e- *||
 B,CDB, C2 B,2- | B,2 G,2 A,3 B, | C2 (B,C DE F2- | F2 ED E3 C) | (D4 E4) | F4 z2 G2 | F2 G4 FE | %31
w: * * * * us, et|_ fi- li- *|* is _ _ _ _|_ _ _ _ _|e- *|ius, et|fi- li- * *|
 F2 G4 (F2 | G2 E2 D3 C | B,2 C2) G,2 z2 | z2 C4 B,2 | G,2 A,2 B,2 C2 | A,2 G,2 z2 G2- | %37
w: * is e-||* * ius,|et di-|xit ad e- *|* os et|
 G2 F2 D2 E2 | F2 G2 E4 | D6 C2 | D2 G,2 A,4 | D4 B,2 G,2 | G4 E2 C2 | z8 | z4 G4 | E2 C4 F2- | %46
w: _ di- xit ad|e- * *||* * os,|et di- xit:|'Cre- sci- te,||cre-|sci- te et|
 F2 F2 F2 D2 | E2 F2 G4 | G4 E4 | C4 D2 G,2 | A,4 z4 | z2 D4 F2 | E2 C2 E4 | D8 | z2 (C3 D E2) | %55
w: _ mul- ti- pli-|ca- mi- ni,|cre- sci-|te, cre- sci-|te|et re-|ple- te ter-|ram.|ter- * *|
 D4 z2 D2 | F2 E2 C2 E2 | D8 | D4 E4- | E2 C2 D2 D2 | B,8 |] %61
w: ram, et|re- ple- te ter-|ram,|et re-|* ple- te ter-|ram.|
V:3
 z8 | z8 | z8 | z8 | z8 | z8 | z8 | d8 | B4 c4 | d8 | G4 c4- | c2 B2 A2 d2- | d2 c2 B4 | %13
w: |||||||Be-|ne- di-|xit|De- us|_ No- e. Be-|* ne- di-|
 A2 (c3 BAG | A4) G4 | z8 | z4 G4 | c6 B2 | A2 d3 cBA | B2 c4 A2 | (c3 B/A/ G3) A | B2 A2 B2 c2 | %22
w: xit De- * * *|* us,||be-|ne- di-|xit De- * * *|* us No-|e, _ _ _ De-|us No- * *|
 A4 G4- | G4 z4 | z4 z2 d2- | d2 c2 d2 f2 | e2 d3 c A2 | B2 d4 c2 | B4 A4 | d4 c2 B2 | %30
w: * e,|_|et|_ fi- li- is|e- * * *||ius, et|fi- li- is|
 A2 GA Bc d2- | d2 G2 d4 | z2 c4 B2 | G2 A2 B2 c2 | A4 (G4 | d4) z2 c2- | c2 B2 G4 | A4 B2 c2 | %38
w: e- * * * * *|* * ius,|et di-|xit ad e- *|* os,|_ et|_ di- xit|ad e- *|
 A2 G2 z2 g2- | g2 f2 d2 e2 | f2 g2 e4 | z2 d4 B2 | G4 c4 | c2 c2 A2 B2 | c2 d2 z4 | z8 | z8 | %47
w: * os, et|_ di- xit ad|e- * os:|'Cre- sci-|te et|mul- ti- pli- ca-|mi- ni,|||
 z2 d4 B2 | G2 c4 c2 | c2 A2 (B2 c2 | d4) (G3 A) | (B4 A4) | z2 A4 c2 | B2 G2 _B4 | A4 z4 | z8 | %56
w: cre- sci-|te et mul-|ti- pli- ca- *|* mi- *|ni, _|et re-|ple- te ter-|ram||
 z2 A4 c2 | B2 G2 _B4 | A4 B2 c2- | cBAG A4 | G8 |] %61
w: et re-|ple- te ter-|* ram, ter-||ram.|
V:4
 z8 | z8 | z8 | z8 | z8 | z8 | z8 | z4 G,4- | G,4 E,4 | F,4 G,3 F, | E,D, C,4 F,2 | E,2 D,2 F,4 | %12
w: |||||||Be-|* ne-|di- xit _|_ _ _ De-|us No- *|
 G,2 A,4 G,2- | G,2 F,2 E,D, G,2- | G,2 ^F,2 G,4 | z8 | z8 | z8 | D,4 G,4- | G,2 F,2 (E,2 D,2) | %20
w: ||* * e.||||Be- ne-|* di- xit _|
 z2 C,D, E,F, G,2- | G,2 F,2 G,2 E,2 | D,4 G,4 | z2 G,4 F,2 | G,2 B,2 A,2 G,2- | G,2 E,2 F,2 D,2 | %26
w: De- * * * *|* * us No-|e, _|et fi-|li- is e- *|* * ius, _|
 C,2 G,4 F,2 | G,2 B,2 A,4 | D,4 z4 | z8 | z4 z2 D,2- | D,2 C,2 D,2 F,2 | (E,2 C,2) G,4 | z8 | %34
w: _ et fi-|li- is e-|ius,||et|_ fi- li- is|e- * ius,||
 z4 z2 G,2- | G,2 F,2 D,2 E,2 | (F,2 G,2 E,4) | D,4 z4 | z8 | z8 | z4 z2 C2- | C2 B,2 G,2 G,2 | %42
w: et|_ di- xit ad|e- * *|os:|||'Cre-|* sci- te, cre-|
 E,2 C,4 F,2- | F,2 F,2 F,2 D,2 | E,2 F,2 G,4 | z8 | z8 | z4 G,4- | G,2 E,4 C,2- | C,2 F,4 E,2 | %50
w: sci- te et|_ mul- ti- pli-|ca- mi- ni,|||cre-|* sci- te|_ et mul-|
 F,2 D,2 E,3 F, | (G,4 D,4) | z8 | z8 | z2 A,4 C2 | B,2 G,2 _B,4 | A,4 z4 | z4 z2 D,2- | %58
w: ti- pli- ca- mi-|ni, _|||et re-|ple- te ter-|ram,|et|
 D,2 F,2 E,2 C,2 | E,4 D,4 | G,8 |] %61
w: _ re- ple- te|ter- *|ram.|

